X: 1
T: March in the Occasional Oratorio,(Melody). BC.48a
M: C|
L: 1/4
Q: 90
C: G.F.Handel,1746
S: Benjamin Cooke MS.circa 1770, F.Kidson Coll.
R: March
O: England
A: x
N: G.F.Handel(1685-1759) wrote the Occasional Oratorio in 1746, not long after the Messiah.
Z: vmp.John Bagnall
K: D
V: 1
A |\
 d/e/f/g/f e | d2 A2 | f/g/a/b/ a g | Tf2 e2 |\
 g/f/g/a/ g f | e2 d2 | g a/g/ f/a/g/f/ | Te3 a |
 e e/e/ e a | A A/A/ TA f/e/ | d c/B/ TB>A | A3 ||\
A |\
 e e/d/ e f | g2 Te2 | f g/f/ e d | a2 Tf2 |
 A A/A/ TA d | A A/A/ TA f | d d/d/ Td a | f f/f/ f d'|\
 b a/g/ a g/f/ | g2 b2 | a g/f/ g f/e/ | f2 a2 |
 g f/e/ f e/d/ | e A e f | g f/e/ Te2 | d d/d/ d a/f/ |\
 d d/d/ d f/d/ | e e/e/ e f/g/ | f/e/d/e/ Te>d | d3 |]
V: 2
D |\
 F/A/ d/f/ d A | F2 D2 | d/e/f/g/ f e | d2 A2 |\
 e/d/e/f/ e d | G2 F2|  e f/e/ d D |  A3 z |
 z A/A/ A2 | z c/c/ c2 | G A E E | A3 ||\
z |\
 z c/B/ c d | e2 Tc2 | d e/d/ c B | A2 d2 |
 A A/A/ A D | A A/A/ TA d | F F/F/ F f | d d/d/ Td f |\
 g f/e/ f e/d/ |  e2 g2 | f e/d/ e d/c/ |Td2 f2 |
 e d/c/ d D | A2 c d | e d A A | F F/F/ F2 |\
 F F/F/ F2 | A A/A/ c e | d D A A/G/ | F3 |]
